build/images/img/lock.svg

<?xml version="1.0" encoding="utf-8"?>
<!-- Generated by IcoMoon.io -->
<!DOCTYPE svg PUBLIC "-//W3C//DTD SVG 1.1//EN" "http://www.w3.org/Graphics/SVG/1.1/DTD/svg11.dtd">
<svg version="1.1" xmlns="http://www.w3.org/2000/svg" xmlns:xlink="http://www.w3.org/1999/xlink" width="55" height="55" viewBox="0 0 20 20">
<path fill="#77de51" d="M14.5 8h-0.5v-1.5c0-2.481-2.019-4.5-4.5-4.5s-4.5 2.019-4.5 4.5v1.5h-0.5c-0.827 0-1.5 0.673-1.5 1.5v8c0 0.827 0.673 1.5 1.5 1.5h10c0.827 0 1.5-0.673 1.5-1.5v-8c0-0.827-0.673-1.5-1.5-1.5zM6 6.5c0-1.93 1.57-3.5 3.5-3.5s3.5 1.57 3.5 3.5v1.5h-7v-1.5zM15 17.5c0 0.276-0.224 0.5-0.5 0.5h-10c-0.276 0-0.5-0.224-0.5-0.5v-8c0-0.276 0.224-0.5 0.5-0.5h10c0.276 0 0.5 0.224 0.5 0.5v8z"></path>
</svg>

<svg xmlns="http://www.w3.org/2000/svg" width="55" height="55" viewBox="0 0 20 20"><path fill="#77de51" d="M14.5 8H14V6.5C14 4.019 11.981 2 9.5 2S5 4.019 5 6.5V8h-.5C3.673 8 3 8.673 3 9.5v8c0 .827.673 1.5 1.5 1.5h10c.827 0 1.5-.673 1.5-1.5v-8c0-.827-.673-1.5-1.5-1.5zM6 6.5C6 4.57 7.57 3 9.5 3S13 4.57 13 6.5V8H6V6.5zm9 11a.5.5 0 01-.5.5h-10a.5.5 0 01-.5-.5v-8a.5.5 0 01.5-.5h10a.5.5 0 01.5.5v8z"/></svg>
